X:636
T:Reel 636
M:4/4
K:Amaj
L:1/8
D|CEED CDEA|FAEC DB,B,C|CEEF A2EC|DB,ED CA,A,:|d|cAAd cABd|cAAE FBB2|cAAd cBAF|EFGB cAAd|cAAd cAAc|BcBe Gfed|cdcB ABcd|ecdB cAA|
